X:228
T:Scruple. VWMLa.228, The
%%VWML:Anon2-3049-p147-0
F:http://www.vwml.org/record/Anon2/3049/p147
S:Anon. MS, late 18thC, Vaughan Williams Mem. Library
O:England;Yorkshire
Z:vmp/efdss.Simon Wilson. Reviewed PJH 2008.
M:6/8
L:1/8
Q:3/8=120
K:C
(e/f/)|gec- ceg|fdc B2G|ABc GEC|D2D D2(e/f/)|\
gec- ceg|fdc B2G|(A/B/c).A (B/c/d).B|c2c c2:|
|:f|(e2g) ece|f2ad2f|\
[c2e2][ce] [c2e2]g|[G2d2][Gd] [G2d2]f|\
(e2g) ece|(f2a)d2c|\
[D2B2][DB] [D2B2][Gd]|[E2c2][Ec] [E2c2]:|
